latex_in_markdown/.watch-latex-md-images/ded3e28f19b026949f6eca36ba64ca93.svg

<ns0:svg xmlns:ns0="http://www.w3.org/2000/svg" xmlns:ns1="http://www.w3.org/1999/xlink" height="15.3026pt" version="1.1" viewBox="23.686 62.7646 86.625 15.3026" width="86.625pt" watch_lated_md:baseline="3.347399999999995" xmlns:watch_lated_md="https://github.com/Quansight/pearu-sandbox/latex_in_markdown/">
<ns0:defs>
<ns0:path d="m3.97677 -11.5171c0.0172154 -0.0688618 0.0516463 -0.172154 0.0516463 -0.258232c0 -0.172154 -0.172154 -0.172154 -0.206585 -0.172154c-0.0172154 0 -0.636971 0.0516463 -0.946849 0.0860772c-0.292662 0.0172154 -0.550894 0.0516463 -0.860772 0.0688618c-0.413171 0.0344309 -0.533679 0.0516463 -0.533679 0.361524c0 0.172154 0.172154 0.172154 0.344309 0.172154c0.877987 0 0.877987 0.154939 0.877987 0.327093c0 0.120508 -0.137724 0.619756 -0.206585 0.929634l-0.413171 1.65268c-0.172154 0.688618 -1.15343 4.59652 -1.2223 4.9064c-0.0860772 0.430386 -0.0860772 0.723049 -0.0860772 0.946849c0 1.75597 0.98128 2.66839 2.10028 2.66839c1.99699 0 4.06284 -2.5651 4.06284 -5.06134c0 -1.58382 -0.895203 -2.70282 -2.18636 -2.70282c-0.895203 0 -1.70433 0.740264 -2.03142 1.08457l1.25673 -5.00969zm-1.08457 11.345c-0.550894 0 -1.15343 -0.413171 -1.15343 -1.75597c0 -0.56811 0.0516463 -0.895203 0.361524 -2.10028c0.0516463 -0.223801 0.327093 -1.32559 0.395955 -1.54939c0.0344309 -0.137724 1.05014 -1.6699 2.22079 -1.6699c0.757479 0 1.10179 0.757479 1.10179 1.65268c0 0.826341 -0.482032 2.77169 -0.912418 3.66689c-0.430386 0.929634 -1.2223 1.75597 -2.01421 1.75597z" id="g0-98" />
<ns0:path d="m3.54638 -5.04412c0.0344309 -0.103293 0.464817 -0.964065 1.10179 -1.51496c0.447601 -0.413171 1.03293 -0.688618 1.70433 -0.688618c0.688618 0 0.929634 0.516463 0.929634 1.20508c0 0.103293 0 0.447601 -0.206585 1.25673l-0.430386 1.77319c-0.137724 0.516463 -0.464817 1.79041 -0.499248 1.97978c-0.0688618 0.258232 -0.172154 0.705833 -0.172154 0.774695c0 0.241016 0.18937 0.430386 0.447601 0.430386c0.516463 0 0.60254 -0.395955 0.757479 -1.01571l1.03293 -4.11449c0.0344309 -0.137724 0.929634 -2.28965 2.82333 -2.28965c0.688618 0 0.929634 0.516463 0.929634 1.20508c0 0.964065 -0.671402 2.84055 -1.05014 3.87347c-0.154939 0.413171 -0.241016 0.636971 -0.241016 0.946849c0 0.774695 0.533679 1.39445 1.36002 1.39445c1.60104 0 2.20358 -2.53067 2.20358 -2.63396c0 -0.0860772 -0.0688618 -0.154939 -0.172154 -0.154939c-0.154939 0 -0.172154 0.0516463 -0.258232 0.344309c-0.395955 1.37724 -1.03293 2.10028 -1.72154 2.10028c-0.172154 0 -0.447601 -0.0172154 -0.447601 -0.56811c0 -0.447601 0.206585 -0.998496 0.275447 -1.18787c0.309878 -0.826341 1.08457 -2.85776 1.08457 -3.85626c0 -1.03293 -0.60254 -1.80762 -1.91091 -1.80762c-1.15343 0 -2.08307 0.654187 -2.77169 1.6699c-0.0516463 -0.929634 -0.619756 -1.6699 -1.91091 -1.6699c-1.53217 0 -2.3413 1.08457 -2.65118 1.51496c-0.0516463 -0.98128 -0.757479 -1.51496 -1.51496 -1.51496c-0.499248 0 -0.895203 0.241016 -1.2223 0.895203c-0.309878 0.619756 -0.550894 1.6699 -0.550894 1.73876s0.0688618 0.154939 0.18937 0.154939c0.137724 0 0.154939 -0.0172154 0.258232 -0.413171c0.258232 -1.01571 0.585325 -2.03142 1.27394 -2.03142c0.395955 0 0.533679 0.275447 0.533679 0.79191c0 0.37874 -0.172154 1.05014 -0.292662 1.58382l-0.482032 1.85927c-0.0688618 0.327093 -0.258232 1.10179 -0.344309 1.41167c-0.120508 0.447601 -0.309878 1.25673 -0.309878 1.3428c0 0.241016 0.18937 0.430386 0.447601 0.430386c0.206585 0 0.447601 -0.103293 0.585325 -0.361524c0.0344309 -0.0860772 0.18937 -0.688618 0.275447 -1.03293l0.37874 -1.54939l0.56811 -2.27244z" id="g0-109" />
<ns0:path d="m8.16012 -7.0239c-0.550894 0.103293 -0.757479 0.516463 -0.757479 0.843557c0 0.413171 0.327093 0.550894 0.56811 0.550894c0.516463 0 0.877987 -0.447601 0.877987 -0.912418c0 -0.723049 -0.826341 -1.05014 -1.54939 -1.05014c-1.05014 0 -1.63547 1.03293 -1.79041 1.36002c-0.395955 -1.29116 -1.46331 -1.36002 -1.77319 -1.36002c-1.75597 0 -2.68561 2.25522 -2.68561 2.63396c0 0.0688618 0.0688618 0.154939 0.18937 0.154939c0.137724 0 0.172154 -0.103293 0.206585 -0.172154c0.585325 -1.91091 1.73876 -2.27244 2.23801 -2.27244c0.774695 0 0.929634 0.723049 0.929634 1.13622c0 0.37874 -0.103293 0.774695 -0.309878 1.60104l-0.585325 2.35852c-0.258232 1.03293 -0.757479 1.97978 -1.6699 1.97978c-0.0860772 0 -0.516463 0 -0.877987 -0.223801c0.619756 -0.120508 0.757479 -0.636971 0.757479 -0.843557c0 -0.344309 -0.258232 -0.550894 -0.585325 -0.550894c-0.413171 0 -0.860772 0.361524 -0.860772 0.912418c0 0.723049 0.809126 1.05014 1.54939 1.05014c0.826341 0 1.41167 -0.654187 1.77319 -1.36002c0.275447 1.01571 1.13622 1.36002 1.77319 1.36002c1.75597 0 2.68561 -2.25522 2.68561 -2.63396c0 -0.0860772 -0.0688618 -0.154939 -0.172154 -0.154939c-0.154939 0 -0.172154 0.0860772 -0.223801 0.223801c-0.464817 1.51496 -1.46331 2.22079 -2.23801 2.22079c-0.60254 0 -0.929634 -0.447601 -0.929634 -1.15343c0 -0.37874 0.0688618 -0.654187 0.344309 -1.79041l0.60254 -2.3413c0.258232 -1.03293 0.843557 -1.79041 1.63547 -1.79041c0.0344309 0 0.516463 0 0.877987 0.223801z" id="g0-120" />
<ns0:path d="m4.52766 1.92813c-0.464817 0.654187 -1.13622 1.23951 -1.97978 1.23951c-0.206585 0 -1.03293 -0.0344309 -1.29116 -0.826341c0.0516463 0.0172154 0.137724 0.0172154 0.172154 0.0172154c0.516463 0 0.860772 -0.447601 0.860772 -0.843557s-0.327093 -0.533679 -0.585325 -0.533679c-0.275447 0 -0.877987 0.206585 -0.877987 1.05014c0 0.877987 0.740264 1.48053 1.72154 1.48053c1.72154 0 3.4603 -1.58382 3.94234 -3.49473l1.68711 -6.71402c0.0172154 -0.0860772 0.0516463 -0.18937 0.0516463 -0.292662c0 -0.258232 -0.206585 -0.430386 -0.464817 -0.430386c-0.154939 0 -0.516463 0.0688618 -0.654187 0.585325l-1.27394 5.06134c-0.0860772 0.309878 -0.0860772 0.344309 -0.223801 0.533679c-0.344309 0.482032 -0.912418 1.06736 -1.73876 1.06736c-0.964065 0 -1.05014 -0.946849 -1.05014 -1.41167c0 -0.98128 0.464817 -2.30687 0.929634 -3.54638c0.18937 -0.499248 0.292662 -0.740264 0.292662 -1.08457c0 -0.723049 -0.516463 -1.37724 -1.36002 -1.37724c-1.58382 0 -2.22079 2.49624 -2.22079 2.63396c0 0.0688618 0.0688618 0.154939 0.18937 0.154939c0.154939 0 0.172154 -0.0688618 0.241016 -0.309878c0.413171 -1.4461 1.06736 -2.13471 1.73876 -2.13471c0.154939 0 0.447601 0 0.447601 0.56811c0 0.447601 -0.18937 0.946849 -0.447601 1.60104c-0.843557 2.25522 -0.843557 2.82333 -0.843557 3.2365c0 1.63547 1.17065 2.01421 2.03142 2.01421c0.499248 0 1.119 -0.154939 1.72154 -0.79191l0.0172154 0.0172154c-0.258232 1.01571 -0.430386 1.68711 -1.03293 2.53067z" id="g0-121" />
<ns0:path d="m6.49022 -3.99398h4.56209c0.241016 0 0.533679 0 0.533679 -0.292662c0 -0.309878 -0.275447 -0.309878 -0.533679 -0.309878h-4.56209v-4.56209c0 -0.241016 0 -0.533679 -0.292662 -0.533679c-0.309878 0 -0.309878 0.275447 -0.309878 0.533679v4.56209h-4.56209c-0.241016 0 -0.533679 0 -0.533679 0.292662c0 0.309878 0.275447 0.309878 0.533679 0.309878h4.56209v4.56209c0 0.241016 0 0.533679 0.292662 0.533679c0.309878 0 0.309878 -0.275447 0.309878 -0.533679v-4.56209z" id="g1-43" />
<ns0:path d="m2.85776 -0.705833c0 -0.430386 -0.344309 -0.705833 -0.705833 -0.705833c-0.344309 0 -0.705833 0.275447 -0.705833 0.705833s0.344309 0.705833 0.705833 0.705833c0.344309 0 0.705833 -0.275447 0.705833 -0.705833z" id="g1-46" />
<ns0:path d="m11.0695 -5.52616c0.258232 0 0.516463 0 0.516463 -0.292662c0 -0.309878 -0.292662 -0.309878 -0.585325 -0.309878h-9.62343c-0.292662 0 -0.585325 0 -0.585325 0.309878c0 0.292662 0.258232 0.292662 0.516463 0.292662h9.76115zm-0.0688618 3.06435c0.292662 0 0.585325 0 0.585325 -0.309878c0 -0.292662 -0.258232 -0.292662 -0.516463 -0.292662h-9.76115c-0.258232 0 -0.516463 0 -0.516463 0.292662c0 0.309878 0.292662 0.309878 0.585325 0.309878h9.62343z" id="g1-61" />
</ns0:defs>
<ns0:g id="page1">
<ns0:use x="27.9837" ns1:href="#g0-121" y="74.7198" />
<ns0:use x="41.6025" ns1:href="#g1-61" y="74.7198" />
<ns0:use x="58.7768" ns1:href="#g0-109" y="74.7198" />
<ns0:use x="73.5214" ns1:href="#g0-120" y="74.7198" />
<ns0:use x="86.926" ns1:href="#g1-43" y="74.7198" />
<ns0:use x="103.144" ns1:href="#g0-98" y="74.7198" />
</ns0:g>
</ns0:svg>

<ns0:svg xmlns:ns0="http://www.w3.org/2000/svg" xmlns:ns1="http://www.w3.org/1999/xlink" height="15.3026pt" version="1.1" viewBox="23.686 62.7646 86.625 15.3026" width="86.625pt" watch_lated_md:baseline="3.347399999999995" xmlns:watch_lated_md="https://github.com/Quansight/pearu-sandbox/latex_in_markdown/">
<ns0:defs>
<ns0:path d="M3.97677 -11.5171C3.99398 -11.586 4.02841 -11.6893 4.02841 -11.7754C4.02841 -11.9475 3.85626 -11.9475 3.82183 -11.9475C3.80461 -11.9475 3.18486 -11.8959 2.87498 -11.8614C2.58232 -11.8442 2.32408 -11.8098 2.01421 -11.7926C1.60104 -11.7581 1.48053 -11.7409 1.48053 -11.4311C1.48053 -11.2589 1.65268 -11.2589 1.82484 -11.2589C2.70282 -11.2589 2.70282 -11.104 2.70282 -10.9318C2.70282 -10.8113 2.5651 -10.312 2.49624 -10.0022L2.08307 -8.34949C1.91091 -7.66087 0.929634 -3.75297 0.860772 -3.44309C0.774695 -3.0127 0.774695 -2.72004 0.774695 -2.49624C0.774695 -0.740264 1.75597 0.172154 2.87498 0.172154C4.87197 0.172154 6.93782 -2.39295 6.93782 -4.88919C6.93782 -6.47301 6.04262 -7.59201 4.75146 -7.59201C3.85626 -7.59201 3.04713 -6.85175 2.72004 -6.50744L3.97677 -11.5171ZM2.89219 -0.172154C2.3413 -0.172154 1.73876 -0.585325 1.73876 -1.92813C1.73876 -2.49624 1.79041 -2.82333 2.10028 -4.02841C2.15193 -4.25221 2.42738 -5.354 2.49624 -5.5778C2.53067 -5.71553 3.54638 -7.2477 4.71703 -7.2477C5.47451 -7.2477 5.81882 -6.49022 5.81882 -5.59502C5.81882 -4.76868 5.33679 -2.82333 4.9064 -1.92813C4.47601 -0.998496 3.6841 -0.172154 2.89219 -0.172154Z" id="g0-98" />
<ns0:path d="M3.54638 -5.04412C3.58081 -5.14742 4.0112 -6.00819 4.64817 -6.55908C5.09577 -6.97225 5.6811 -7.2477 6.3525 -7.2477C7.04112 -7.2477 7.28213 -6.73124 7.28213 -6.04262C7.28213 -5.93933 7.28213 -5.59502 7.07555 -4.78589L6.64516 -3.0127C6.50744 -2.49624 6.18034 -1.2223 6.14591 -1.03293C6.07705 -0.774695 5.97376 -0.327093 5.97376 -0.258232C5.97376 -0.0172154 6.16313 0.172154 6.42136 0.172154C6.93782 0.172154 7.0239 -0.223801 7.17884 -0.843557L8.21177 -4.95805C8.2462 -5.09577 9.1414 -7.2477 11.0351 -7.2477C11.7237 -7.2477 11.9647 -6.73124 11.9647 -6.04262C11.9647 -5.07856 11.2933 -3.20207 10.9146 -2.16915C10.7597 -1.75597 10.6736 -1.53217 10.6736 -1.2223C10.6736 -0.447601 11.2073 0.172154 12.0336 0.172154C13.6346 0.172154 14.2372 -2.35852 14.2372 -2.46181C14.2372 -2.54789 14.1683 -2.61675 14.065 -2.61675C13.9101 -2.61675 13.8929 -2.5651 13.8068 -2.27244C13.4108 -0.895203 12.7739 -0.172154 12.0852 -0.172154C11.9131 -0.172154 11.6376 -0.18937 11.6376 -0.740264C11.6376 -1.18787 11.8442 -1.73876 11.9131 -1.92813C12.223 -2.75447 12.9977 -4.78589 12.9977 -5.78439C12.9977 -6.81731 12.3951 -7.59201 11.0867 -7.59201C9.93331 -7.59201 9.00368 -6.93782 8.31506 -5.92211C8.26341 -6.85175 7.6953 -7.59201 6.40414 -7.59201C4.87197 -7.59201 4.06284 -6.50744 3.75297 -6.07705C3.70132 -7.05833 2.99549 -7.59201 2.23801 -7.59201C1.73876 -7.59201 1.3428 -7.35099 1.01571 -6.69681C0.705833 -6.07705 0.464817 -5.02691 0.464817 -4.95805S0.533679 -4.80311 0.654187 -4.80311C0.79191 -4.80311 0.809126 -4.82032 0.912418 -5.21628C1.17065 -6.23199 1.49774 -7.2477 2.18636 -7.2477C2.58232 -7.2477 2.72004 -6.97225 2.72004 -6.45579C2.72004 -6.07705 2.54789 -5.40565 2.42738 -4.87197L1.94534 -3.0127C1.87648 -2.68561 1.68711 -1.91091 1.60104 -1.60104C1.48053 -1.15343 1.29116 -0.344309 1.29116 -0.258232C1.29116 -0.0172154 1.48053 0.172154 1.73876 0.172154C1.94534 0.172154 2.18636 0.0688618 2.32408 -0.18937C2.35852 -0.275447 2.51345 -0.877987 2.59953 -1.2223L2.97827 -2.77169L3.54638 -5.04412Z" id="g0-109" />
<ns0:path d="M8.16012 -7.0239C7.60922 -6.92061 7.40264 -6.50744 7.40264 -6.18034C7.40264 -5.76717 7.72973 -5.62945 7.97075 -5.62945C8.48721 -5.62945 8.84874 -6.07705 8.84874 -6.54187C8.84874 -7.26492 8.0224 -7.59201 7.29935 -7.59201C6.24921 -7.59201 5.66388 -6.55908 5.50894 -6.23199C5.11299 -7.52315 4.04563 -7.59201 3.73575 -7.59201C1.97978 -7.59201 1.05014 -5.33679 1.05014 -4.95805C1.05014 -4.88919 1.119 -4.80311 1.23951 -4.80311C1.37724 -4.80311 1.41167 -4.9064 1.4461 -4.97526C2.03142 -6.88618 3.18486 -7.2477 3.6841 -7.2477C4.4588 -7.2477 4.61374 -6.52465 4.61374 -6.11148C4.61374 -5.73274 4.51045 -5.33679 4.30386 -4.51045L3.71854 -2.15193C3.4603 -1.119 2.96106 -0.172154 2.04864 -0.172154C1.96256 -0.172154 1.53217 -0.172154 1.17065 -0.395955C1.79041 -0.516463 1.92813 -1.03293 1.92813 -1.23951C1.92813 -1.58382 1.6699 -1.79041 1.3428 -1.79041C0.929634 -1.79041 0.482032 -1.42888 0.482032 -0.877987C0.482032 -0.154939 1.29116 0.172154 2.03142 0.172154C2.85776 0.172154 3.44309 -0.482032 3.80461 -1.18787C4.08006 -0.172154 4.94083 0.172154 5.5778 0.172154C7.33378 0.172154 8.26341 -2.08307 8.26341 -2.46181C8.26341 -2.54789 8.19455 -2.61675 8.09126 -2.61675C7.93632 -2.61675 7.9191 -2.53067 7.86746 -2.39295C7.40264 -0.877987 6.40414 -0.172154 5.62945 -0.172154C5.02691 -0.172154 4.69982 -0.619756 4.69982 -1.32559C4.69982 -1.70433 4.76868 -1.97978 5.04412 -3.11599L5.64666 -5.45729C5.9049 -6.49022 6.49022 -7.2477 7.28213 -7.2477C7.31656 -7.2477 7.79859 -7.2477 8.16012 -7.0239Z" id="g0-120" />
<ns0:path d="M4.52766 1.92813C4.06284 2.58232 3.39144 3.16764 2.54789 3.16764C2.3413 3.16764 1.51496 3.13321 1.25673 2.3413C1.30837 2.35852 1.39445 2.35852 1.42888 2.35852C1.94534 2.35852 2.28965 1.91091 2.28965 1.51496S1.96256 0.98128 1.70433 0.98128C1.42888 0.98128 0.826341 1.18787 0.826341 2.03142C0.826341 2.90941 1.56661 3.51195 2.54789 3.51195C4.26943 3.51195 6.00819 1.92813 6.49022 0.0172154L8.17733 -6.69681C8.19455 -6.78288 8.22898 -6.88618 8.22898 -6.98947C8.22898 -7.2477 8.0224 -7.41986 7.76416 -7.41986C7.60922 -7.41986 7.2477 -7.35099 7.10998 -6.83453L5.83603 -1.77319C5.74996 -1.46331 5.74996 -1.42888 5.61223 -1.23951C5.26792 -0.757479 4.69982 -0.172154 3.87347 -0.172154C2.90941 -0.172154 2.82333 -1.119 2.82333 -1.58382C2.82333 -2.5651 3.28815 -3.89069 3.75297 -5.1302C3.94234 -5.62945 4.04563 -5.87047 4.04563 -6.21477C4.04563 -6.93782 3.52917 -7.59201 2.68561 -7.59201C1.10179 -7.59201 0.464817 -5.09577 0.464817 -4.95805C0.464817 -4.88919 0.533679 -4.80311 0.654187 -4.80311C0.809126 -4.80311 0.826341 -4.87197 0.895203 -5.11299C1.30837 -6.55908 1.96256 -7.2477 2.63396 -7.2477C2.7889 -7.2477 3.08156 -7.2477 3.08156 -6.67959C3.08156 -6.23199 2.89219 -5.73274 2.63396 -5.07856C1.79041 -2.82333 1.79041 -2.25522 1.79041 -1.84205C1.79041 -0.206585 2.96106 0.172154 3.82183 0.172154C4.32108 0.172154 4.94083 0.0172154 5.54337 -0.619756L5.56059 -0.60254C5.30236 0.413171 5.1302 1.08457 4.52766 1.92813Z" id="g0-121" />
<ns0:path d="M6.49022 -3.99398H11.0523C11.2933 -3.99398 11.586 -3.99398 11.586 -4.28664C11.586 -4.59652 11.3105 -4.59652 11.0523 -4.59652H6.49022V-9.15861C6.49022 -9.39963 6.49022 -9.69229 6.19756 -9.69229C5.88768 -9.69229 5.88768 -9.41685 5.88768 -9.15861V-4.59652H1.32559C1.08457 -4.59652 0.79191 -4.59652 0.79191 -4.30386C0.79191 -3.99398 1.06736 -3.99398 1.32559 -3.99398H5.88768V0.56811C5.88768 0.809126 5.88768 1.10179 6.18034 1.10179C6.49022 1.10179 6.49022 0.826341 6.49022 0.56811V-3.99398Z" id="g1-43" />
<ns0:path d="M2.85776 -0.705833C2.85776 -1.13622 2.51345 -1.41167 2.15193 -1.41167C1.80762 -1.41167 1.4461 -1.13622 1.4461 -0.705833S1.79041 0 2.15193 0C2.49624 0 2.85776 -0.275447 2.85776 -0.705833Z" id="g1-46" />
<ns0:path d="M11.0695 -5.52616C11.3278 -5.52616 11.586 -5.52616 11.586 -5.81882C11.586 -6.1287 11.2933 -6.1287 11.0007 -6.1287H1.37724C1.08457 -6.1287 0.79191 -6.1287 0.79191 -5.81882C0.79191 -5.52616 1.05014 -5.52616 1.30837 -5.52616H11.0695ZM11.0007 -2.46181C11.2933 -2.46181 11.586 -2.46181 11.586 -2.77169C11.586 -3.06435 11.3278 -3.06435 11.0695 -3.06435H1.30837C1.05014 -3.06435 0.79191 -3.06435 0.79191 -2.77169C0.79191 -2.46181 1.08457 -2.46181 1.37724 -2.46181H11.0007Z" id="g1-61" />
</ns0:defs>
<ns0:g id="page1">
<ns0:use x="27.9837" ns1:href="#g0-121" y="74.7198" />
<ns0:use x="41.6025" ns1:href="#g1-61" y="74.7198" />
<ns0:use x="58.7768" ns1:href="#g0-109" y="74.7198" />
<ns0:use x="73.5214" ns1:href="#g0-120" y="74.7198" />
<ns0:use x="86.926" ns1:href="#g1-43" y="74.7198" />
<ns0:use x="103.144" ns1:href="#g0-98" y="74.7198" />
</ns0:g>
</ns0:svg>
